!!!OTL: Jiefangjun daochu shou huanyeng
!!!ARE: Asia, China,ÿGansu Jingchuan
!! I, 123
!!!SCT: C1818
!!!YEM: Copyright 1995, estate of Helmut Schaffrath.
**kern
*ICvox
*Ivox
*M2/4
*k[b-]
*F:
{8f
16e
16f
8d
8c
=1
8f
16e
16f
8d
8c
=2
8dd
4cc
8cc
=3
8dd
8cc
8b-
8g}
=4
{8dd
4cc
8cc
=5
8dd
8cc
8b-
8g
=6
8f
4f
8g
=7
2f}
=8
{8f
8g
8cc
8cc
=9
8dd
8cc
8b-
8g
=10
8b-
8g
8b-
16g
16b-
=11
4.e
8f}
=12
{8b-
4g
8cc
=13
8f
8g
8f
16e
16d
=14
8c
4c
8f
=15
2c}
==
!!!AGN: Xiaodiao, Yangyanmai
!! Han
!!!ONB: ESAC (Essen Associative Code) Database: SENGANSU
!!!AMT: simple duple
!!!AIN: vox
!!!EED: Helmut Schaffrath
!!!EEV: 1.0
*-
